modules/map-icons/icons/electrician.svg

<svg version="1.2" baseProfile="tiny" xmlns="http://www.w3.org/2000/svg" width="50" height="50" viewBox="0 0 50 50" overflow="inherit"><path d="M41 14h-5v-11.081c0-1.06-.895-1.919-2-1.919s-2 .859-2 1.919v11.081h-16v-11.081c0-1.06-.895-1.919-2.001-1.919-1.105 0-1.999.859-1.999 1.919v11.081h-5c-.553 0-1 .869-1 1.399v4.801c0 5.759 10 12.446 10 21.696v3.104h4v4h8v-4h4v-3.104c0-9.25 10-15.938 10-21.696v-4.801c0-.53-.447-1.399-1-1.399m-18.093 16.388c.065-.21-.067-.388-.296-.388h-3.885c-.23 0-.295-.13-.149-.299 0 0 8.005-10.159 8.161-10.355.118-.186.248-.121.207.093-.062.271-1.771 7.202-1.771 7.202-.083.204.037.359.264.359h3.887c.229 0 .302.154.162.328 0 0-8.017 10.402-8.161 10.576-.145.174-.279.121-.206-.175.073-.297 1.787-7.341 1.787-7.341"/></svg>

<svg version="1.2" baseProfile="tiny" xmlns="http://www.w3.org/2000/svg" width="50" height="50" overflow="inherit"><path d="M41 14h-5V2.919C36 1.859 35.105 1 34 1s-2 .859-2 1.919V14H16V2.919C16 1.859 15.105 1 13.999 1 12.894 1 12 1.859 12 2.919V14H7c-.553 0-1 .869-1 1.399V20.2c0 5.759 10 12.446 10 21.696V45h4v4h8v-4h4v-3.104c0-9.25 10-15.938 10-21.696v-4.801c0-.53-.447-1.399-1-1.399M22.907 30.388c.065-.21-.067-.388-.296-.388h-3.885c-.23 0-.295-.13-.149-.299 0 0 8.005-10.159 8.161-10.355.118-.186.248-.121.207.093-.062.271-1.771 7.202-1.771 7.202-.083.204.037.359.264.359h3.887c.229 0 .302.154.162.328 0 0-8.017 10.402-8.161 10.576-.145.174-.279.121-.206-.175l1.787-7.341"/></svg>
